X: 30503
T: HARP'S HORNPIPE
C:
%R: hornpipe, reel
B: Elias Howe "The Musician's Companion" Part 3 1844 p.50 #3
S: http://imslp.org/wiki/The_Musician's_Companion_(Howe,_Elias)
S: https://archive.org/stream/firstthirdpartof03howe/#page/66/mode/1up
Z: 2015 John Chambers <jc:trillian.mit.edu>
N: Added "pickup" rest to 2nd strain, to fix the rhythm.
M: 2/4
L: 1/16
K: C
% - - - - - - - - - - - - - - - - - - - - - - - - -
G2 |\
(c2ce) gage | gage gage | fafd egec | dedc cBAG |\
(c2ce) gage | gage gage | fafd egec | dfBd c2 :|
|:z2 |\
c'4- c'geg | .c'2.b2 .a2.g2 | fd'd'd' [ed]c'c'c' | dedc cBAG |\
c2eg ageg | afdf gece | fafd egec | dfBd c2 :|
% - - - - - - - - - - - - - - - - - - - - - - - - -


